icons/crutches.svg

<svg width="48" height="48" viewBox="0 0 48 48" fill="none" xmlns="http://www.w3.org/2000/svg">
<rect width="48" height="48" fill="white"/>
<path d="M22.3019 41.9658C22.4358 41.334 23.3404 40.9933 23.9862 40.9933C24.6444 40.9933 25.5539 41.3328 25.6934 41.976L25.8422 42.6622C25.9359 43.094 25.7352 43.5386 25.3235 43.6989C24.9351 43.85 24.4366 43.9999 23.9863 43.9999C23.5642 43.9999 23.0718 43.8496 22.6829 43.6982C22.2688 43.537 22.0634 43.0909 22.1555 42.6562L22.3019 41.9658Z" fill="black"/>
<path fill-rule="evenodd" clip-rule="evenodd" d="M19.9467 9.66737C19.9326 9.11542 19.4737 8.67921 18.9217 8.6932C18.3696 8.70719 17.9334 9.1661 17.9473 9.71821L18.947 9.69288C17.9473 9.71821 17.9473 9.71808 17.9473 9.71821L17.9474 9.72198L17.9477 9.72993L17.9485 9.75858C17.9493 9.78343 17.9506 9.81993 17.9525 9.86875C17.9562 9.96638 17.9624 10.1134 17.9724 10.3152C17.9925 10.7187 18.0279 11.3419 18.0893 12.2287C18.2121 14.0021 18.4392 16.8311 18.8566 21.068C19.0063 22.5869 19.8977 23.9454 20.6038 25.0214L20.6827 25.1419C21.0666 25.7279 21.3994 26.2416 21.6418 26.74C21.8822 27.2341 21.997 27.6423 21.997 28.0023C21.997 28.2598 21.9978 29.0095 21.9985 29.6939L22.0001 30.9989C22.0008 31.5508 22.4484 31.998 23 31.9981L23 39.0017C23 39.553 23.447 40 23.9983 40C24.5496 40 24.9966 39.553 24.9966 39.0017V38.9949H25V32.0144C25.0033 32.0144 25.0065 32.0145 25.0097 32.0145C25.562 32.0145 26.0097 31.5667 26.0097 31.0144V27.9737C26.0097 27.6181 26.1247 27.2169 26.3672 26.7304C26.6122 26.2386 26.9479 25.734 27.3359 25.1542L27.4004 25.0579C28.1146 23.9918 29.0267 22.6304 29.1485 21.0815C29.4748 16.9302 29.7002 14.1028 29.844 12.3135C29.9159 11.4189 29.9674 10.7837 30.0009 10.3724L30.0498 9.77441L28.0567 9.60898L28.0075 10.21C27.9739 10.6221 27.9224 11.258 27.8504 12.1533C27.8083 12.6775 27.7592 13.2907 27.7026 14H20.2271C20.1683 13.2581 20.1215 12.625 20.0845 12.0905C20.0239 11.2153 19.9893 10.6051 19.97 10.2158C19.9603 10.0212 19.9544 9.88186 19.951 9.7923C19.9493 9.74752 19.9482 9.71519 19.9475 9.69463L19.9469 9.67252L19.9467 9.66737ZM24.1336 27.0039C24.2373 26.5897 24.3969 26.1999 24.5771 25.8383C24.8851 25.2204 25.2896 24.6158 25.6575 24.0661L25.6737 24.0419C26.4715 22.8497 27.0778 21.9015 27.1546 20.9248C27.305 19.0114 27.434 17.3792 27.5434 16H20.3935C20.5114 17.3597 20.6599 18.9729 20.847 20.8719C20.9447 21.8635 21.5633 22.8362 22.3558 24.046C22.7266 24.612 23.1326 25.2324 23.4404 25.8652C23.6131 26.2203 23.7662 26.6012 23.8679 27.0039H24.1336Z" fill="black"/>
<path fill-rule="evenodd" clip-rule="evenodd" d="M30 6H18V8H30V6ZM16 4V8C16 9.10457 16.8954 10 18 10H30C31.1046 10 32 9.10457 32 8V4H16Z" fill="black"/>
</svg>

<svg
  xmlns="http://www.w3.org/2000/svg"
  width="24"
  height="24"
  viewBox="0 0 24 24"
  fill="none"
  stroke="currentColor"
  stroke-width="2"
  stroke-linecap="round"
  stroke-linejoin="round"
>
  <rect width="48" height="48" />
  <path d="M22.302 41.966c.134-.632 1.038-.973 1.684-.973.658 0 1.568.34 1.707.983l.15.686c.093.432-.108.877-.52 1.037-.388.151-.886.3-1.337.3-.422 0-.914-.15-1.303-.3-.414-.162-.62-.608-.527-1.043z" />
  <path
    fill-rule="evenodd"
    d="M19.947 9.667a1 1 0 0 0-2 .051l1-.025-1 .025v.012l.002.029.003.11.02.446c.02.404.056 1.027.117 1.914.123 1.773.35 4.602.768 8.839.15 1.519 1.04 2.877 1.747 3.953l.079.12c.384.587.716 1.1.959 1.599.24.494.355.902.355 1.262 0 .258 0 1.008.002 1.692L22 30.999a1 1 0 0 0 1 1v7.003a.998.998 0 0 0 1.997 0v-.007H25v-6.98h.01a1 1 0 0 0 1-1v-3.041c0-.356.115-.757.357-1.244.245-.491.58-.996.969-1.576l.064-.096c.715-1.066 1.627-2.428 1.749-3.977A5106 5106 0 0 1 30 10.372l.049-.598-1.993-.165-.05.601-.304 3.79h-7.476c-.059-.742-.105-1.375-.143-1.91a98 98 0 0 1-.133-2.298l-.003-.097-.001-.022zm4.187 17.337c.103-.414.263-.804.443-1.166.308-.618.713-1.222 1.08-1.772l.017-.024c.797-1.192 1.404-2.14 1.48-3.117l.39-4.925h-7.15c.117 1.36.266 2.973.453 4.872.098.991.716 1.964 1.509 3.174.37.566.777 1.186 1.084 1.82.173.354.326.735.428 1.138z"
    clip-rule="evenodd"
  />
  <path
    fill-rule="evenodd"
    d="M30 6H18v2h12zM16 4v4a2 2 0 0 0 2 2h12a2 2 0 0 0 2-2V4z"
    clip-rule="evenodd"
  />
</svg>
